X:1
T:Title
%%score { ( 1 4 ) | ( 2 3 ) }
L:1/8
Q:1/4=100
M:6/8
K:G
V:1 treble nm="Grand Piano"
V:4 treble 
V:2 bass 
V:3 bass 
V:1
 D2 G G F2 | D2 [FA] [FA] G2 | D2 c cBG | GFG [FA]3 | D2 G G F2 | D2 [FA] [FA] G2 | D2 c cB[CEA] | %7
w: J.~B.~Herbert * * *|||||||
 [B,DG]2 [A,CF] [G,B,G]3 | [G,CE]2 [G,CE] [EG]FE | z3 .G3 | A2 A cBA | B2 [G^c] [Fd]3 | G2 G BAG | %13
w: ||||||
 E2 E [EG]FE | D2 F [FA]G[A,DF] | [A,^CF]2[K:bass] [G,CE] [F,D]3 | z2[K:treble] d z3 | z2 e z3 | %18
w: |||||
 c2 B AGE | [B,EG] [B,^DF]2- [B,DF]3 | z2 B z3 | z2 d z3 | [DGd]2 [EG] [DFB]2 [CFA] | %23
w: |||||
 [CDA] [B,DG]2- [B,DG]3 |] %24
w: |
V:2
 [G,B,]2 [G,B,D] [A,CD] [A,CD]2 | [D,C]2 [D,C] [E,B,] [E,B,E]2 | %2
 [F,A,]2 [F,A,D][K:treble] ED[G,B,D] | [A,CD]2 [G,B,D][K:bass] [D,D]3 | %4
 [G,B,]2 [G,B,D] [A,CD] [A,CD]2 | [D,C]2 [D,C] [E,B,] [E,B,E]2 | [F,A,]2 [F,A,D] EDC, | %7
 D,2 D, G,,3 | C,2 C, z D[C,G,C] | [D,F,A,]2 [C,F,] [B,,G,][A,,F,][G,,G,] | z3 .A,3 | %11
 [G,D]2 [E,A,] [D,A,]3 | [G,B,]2 [G,B,D] DC[G,B,] | [C,G,C]2 [C,G,C] z D[C,G,C] | %14
 [D,F,A,]2 [D,A,D] z ED, | A,,2 A,, D,3 | d2[K:bass] [D,A,]/[D,A,]/ [G,B,G]3 | %17
 z2 [E,B,]/[E,B,]/[K:treble] [A,CA]3 | C2 B, A,G,[K:bass]E, | B,, B,,2- B,,3 | %20
 B2[K:bass] [B,,F,]/[B,,F,]/ [E,G,E]3 | z2 [D,A,]/[D,A,]/ [G,B,G]3 | B,,2 C, D,2 D, | %23
 G,, G,,2- G,,3 |] %24
V:3
 x6 | x6 | z3[K:treble] .G,3 | x3[K:bass] x3 | x6 | x6 | z3 .G,3 | x6 | z3 .[C,G,]3 | x6 | %10
 [D,F,D]2 [D,F,D] [D,D]-[D,G,D][D,F,D] | x6 | z3 .G,3 | z3 .[C,G,]3 | z3 .[D,A,]3 | x6 | %16
 x2[K:bass] x4 | x3[K:treble] x3 | x5[K:bass] x | x6 | x2[K:bass] x4 | x6 | x6 | x6 |] %24
V:4
 x6 | x6 | x6 | x6 | x6 | x6 | x6 | x6 | x6 | D2 D D-[DA][DB] | x6 | x6 | x6 | x6 | x6 | %15
 x2[K:bass] x4 | z2[K:treble] F/F/ d3 | e2 ^G/G/ e3 | x6 | x6 | z2 ^D/D/ B3 | d2 F/F/ d3 | x6 | %23
 x6 |] %24

